portfolio/adventure/img/svg/pill.svg

<svg xmlns="http://www.w3.org/2000/svg" width="77" height="78"><path d="M7.95 69.746l-.966-.965c-9.336-9.332-9.336-24.462 0-33.794L34.995 6.986c9.336-9.331 24.472-9.331 33.808 0l.966.965c9.335 9.333 9.335 24.463 0 33.795l-28.012 28c-9.336 9.333-24.472 9.333-33.807 0zm42.017-19.794L26.785 26.78l-14.006 14c-6.135 6.133-6.135 16.075 0 22.208l.966.966c6.135 6.132 16.082 6.132 22.216 0l14.006-14.002z" fill-rule="evenodd"/></svg>

<svg xmlns="http://www.w3.org/2000/svg" xmlns:xlink="http://www.w3.org/1999/xlink" preserveaspectratio="xMidYMid" width="77" height="78" viewbox="0 0 77 78">
  <defs>
  </defs>
  <path d="M7.950,69.746 C7.950,69.746 6.984,68.781 6.984,68.781 C-2.352,59.449 -2.352,44.319 6.984,34.987 C6.984,34.987 34.995,6.986 34.995,6.986 C44.331,-2.345 59.467,-2.345 68.803,6.986 C68.803,6.986 69.769,7.951 69.769,7.951 C79.104,17.284 79.104,32.414 69.769,41.746 C69.769,41.746 41.757,69.746 41.757,69.746 C32.421,79.079 17.285,79.079 7.950,69.746 ZM49.967,49.952 C49.967,49.952 26.785,26.780 26.785,26.780 C26.785,26.780 12.779,40.780 12.779,40.780 C6.644,46.913 6.644,56.855 12.779,62.988 C12.779,62.988 13.745,63.954 13.745,63.954 C19.880,70.086 29.827,70.086 35.961,63.954 C35.961,63.954 49.967,49.952 49.967,49.952 Z" id="pill" fill-rule="evenodd"/>
</svg>
